X:1
T:Luther's Cradle Hymn
M:3/4
L:1/4
C:Chas. H. Gabriel
B:E.O. Excell, Make His Praise Glorious, 1900, no. 156
N:Lyricist: "Martin Luther"; Composer: Chas. H. Gabriel, copyright, 1896
K:D
A|A3/2 G/ F|A3/2 G/ F|E D E|F2 F|G3/2 F/ E|
w:A-way in a man-ger, No crib for His bed, The lit-tle Lord
F D F|A G F|E2 A|A3/2 G/ F|A3/2 G/ F|
w:Je-sus Lay down His wee head; The stars in the heav-ens Look'd
E D E|F2 F|G3/2 A/ B|A3/2 G/ F|E F3/2 E/|D2||
w:down where He lay. The lit-tle Lord Je-sus, A-sleep on the hay.
A|A3-|A2 A|A3-|A2 d|c2 G|[1c2 B|B2 F|A2:|[2c2 A|d3-|d2|]
w:(Chorus)A-sleep,_ a-sleep,_ A-sleep, The Sav-ior, in a stall! Lord of all!_
